web/themes/quartiers_solidaires/assets/icons/mail.svg

<?xml version="1.0" encoding="UTF-8"?>
<svg width="50px" height="50px" viewBox="0 0 50 50" version="1.1" xmlns="http://www.w3.org/2000/svg" xmlns:xlink="http://www.w3.org/1999/xlink">
    <defs>
        <polygon id="path-1" points="43 0.0004 43 42.9909 0.0001 42.9909 0.0001 0.0004 43 0.0004"></polygon>
    </defs>
    <g id="Page-1" stroke="none" stroke-width="1" fill="none" fill-rule="evenodd">
        <g transform="translate(4.000000, 4.000000)">
            <mask id="mask-2" fill="white">
                <use xlink:href="#path-1"></use>
            </mask>
            <g id="Clip-2"></g>
            <path d="M21.3721,29.7119 C16.6851,29.7119 12.8721,25.8989 12.8721,21.2119 C12.8721,16.5249 16.6851,12.7119 21.3721,12.7119 C26.0591,12.7119 29.8721,16.5249 29.8721,21.2119 C29.8721,25.8989 26.0591,29.7119 21.3721,29.7119 M41.3101,13.1229 C40.2271,10.5629 38.6771,8.2639 36.7031,6.2889 C34.7291,4.3149 32.4301,2.7649 29.8701,1.6819 C24.5691,-0.5601 18.4311,-0.5601 13.1311,1.6819 C10.5721,2.7639 8.2731,4.3139 6.2971,6.2889 C4.3231,8.2639 2.7731,10.5629 1.6901,13.1229 C0.5691,15.7739 0.0001,18.5899 0.0001,21.4909 C0.0001,24.3939 0.5691,27.2099 1.6901,29.8599 C2.7741,32.4219 4.3241,34.7209 6.2971,36.6939 C8.2731,38.6699 10.5721,40.2199 13.1311,41.3019 C15.7831,42.4229 18.5981,42.9909 21.5001,42.9909 C24.4021,42.9909 27.2181,42.4229 29.8691,41.3019 C30.6321,40.9789 30.9891,40.0989 30.6661,39.3359 C30.3441,38.5729 29.4641,38.2169 28.7011,38.5379 C24.1411,40.4649 18.8601,40.4669 14.2991,38.5379 C12.0981,37.6079 10.1201,36.2739 8.4181,34.5729 C6.7201,32.8739 5.3851,30.8959 4.4531,28.6919 C3.4891,26.4119 3.0001,23.9899 3.0001,21.4909 C3.0001,18.9929 3.4891,16.5709 4.4531,14.2909 C5.3851,12.0889 6.7191,10.1099 8.4181,8.4099 C10.1201,6.7099 12.0981,5.3759 14.3001,4.4449 C18.8581,2.5159 24.1431,2.5159 28.7011,4.4449 C30.9031,5.3759 32.8821,6.7109 34.5821,8.4099 C36.2821,10.1099 37.6161,12.0889 38.5471,14.2909 C39.5111,16.5709 40.0001,18.9929 40.0001,21.4909 C40.0001,22.9139 39.4461,24.2519 38.4401,25.2579 C37.6911,26.0059 36.6971,26.4179 35.6391,26.4179 C34.8721,26.4179 34.1521,26.1199 33.6101,25.5779 C33.1551,25.1219 32.8721,24.5819 32.8721,24.1669 L32.8721,11.2119 C32.8721,10.3839 32.2011,9.7119 31.3721,9.7119 C30.5431,9.7119 29.8721,10.3839 29.8721,11.2119 L29.8721,13.4929 C27.7671,11.1779 24.7411,9.7119 21.3721,9.7119 C15.0311,9.7119 9.8721,14.8709 9.8721,21.2119 C9.8721,27.5529 15.0311,32.7119 21.3721,32.7119 C25.4881,32.7119 29.0951,30.5309 31.1271,27.2729 C31.2471,27.4149 31.3521,27.5639 31.4891,27.6989 C32.5971,28.8079 34.0711,29.4179 35.6391,29.4179 C37.4981,29.4179 39.2461,28.6939 40.5611,27.3789 C42.1341,25.8069 43.0001,23.7149 43.0001,21.4909 C43.0001,18.5899 42.4321,15.7739 41.3101,13.1229" id="Fill-1" fill="currentColor" mask="url(#mask-2)"></path>
        </g>
    </g>
</svg>

<svg viewBox="0 0 50 50" xmlns="http://www.w3.org/2000/svg" xmlns:xlink="http://www.w3.org/1999/xlink">
  <defs>
    <path id="a" d="M43 0v42.99H0V0h43z"/>
  </defs>
  <g transform="translate(4 4)" fill="none" fill-rule="evenodd">
    <mask id="b" fill="#fff">
      <use xlink:href="#a"/>
    </mask>
    <path d="M21.372 29.712c-4.687 0-8.5-3.813-8.5-8.5 0-4.687 3.813-8.5 8.5-8.5 4.687 0 8.5 3.813 8.5 8.5 0 4.687-3.813 8.5-8.5 8.5m19.938-16.59a21.444 21.444 0 0 0-4.607-6.833 21.43 21.43 0 0 0-6.833-4.607c-5.3-2.242-11.439-2.242-16.739 0a21.434 21.434 0 0 0-6.834 4.607A21.444 21.444 0 0 0 0 21.49a21.433 21.433 0 0 0 6.297 15.203A21.42 21.42 0 0 0 21.5 42.99c2.902 0 5.718-.568 8.37-1.69a1.5 1.5 0 0 0-1.169-2.763c-4.56 1.927-9.84 1.929-14.402 0a18.435 18.435 0 0 1-5.88-3.965A18.45 18.45 0 0 1 3 21.49c0-2.498.49-4.92 1.453-7.2a18.467 18.467 0 0 1 3.965-5.88A18.46 18.46 0 0 1 14.3 4.445c4.558-1.93 9.843-1.93 14.401 0a18.45 18.45 0 0 1 5.881 3.965A18.434 18.434 0 0 1 40 21.49a5.293 5.293 0 0 1-1.56 3.768 3.937 3.937 0 0 1-2.8 1.16 2.85 2.85 0 0 1-2.03-.84c-.455-.456-.738-.996-.738-1.411V11.212a1.5 1.5 0 1 0-3 0v2.28c-2.105-2.314-5.13-3.78-8.5-3.78-6.34 0-11.5 5.159-11.5 11.5 0 6.34 5.16 11.5 11.5 11.5 4.116 0 7.723-2.181 9.755-5.44.12.143.225.292.362.427a5.827 5.827 0 0 0 4.15 1.719 6.915 6.915 0 0 0 4.922-2.04 8.27 8.27 0 0 0 2.44-5.887 21.37 21.37 0 0 0-1.69-8.368" fill="currentColor" mask="url(#b)"/>
  </g>
</svg>
